X: 071
Q: "slow"
M: C
L: 1/8
K: D
V: 1
{DE}F2A2 d3f | Te>d (e/f/g/f/) Te3A | {G}TF2A2 (f>ed)B | A2- A/(G/F/E/) D3 :|
|: d |\
V: 2 clef=bass middle=d
z |\
d'2"6"c'2 bc'"6"d'b | "6"c'3d' ab"6"c'a | d'2"6"c'2 b3g | "4"a2"3"A2 d3 :: z a3 "6"^g
ab"6"c'd' "6"e'"6"c'd'd a2A2 | zAd>e "6"f>gf"6"e | d"6"b"4"a"3"A d2"6;5"^G2 | A2z"#"e ab"6"c'd' |
"6"e'"6"c'd'd a2z2 | d'2"6"c'2 "5"b3g | "4"a2 "3"A2 d3 :|

